X:1
T:Title
%%score { ( 1 3 ) | ( 2 4 ) }
L:1/8
M:6/8
K:C
V:1 treble nm="Grand Piano"
V:3 treble 
V:2 bass 
V:4 bass 
V:1
 z3 z2[Q:1/4=110] G | G2 G A2 B | c3 G2 G | F2 A D2 F |[M:5/8] E-E- E3 |[M:1/8] G | %6
[M:3/4] G2 G A2 B | c3 G2 E | D2 G A2 B |[M:5/8] G-G- G3 |[M:1/8] G |[M:3/4] B2 B A2 B | c4 z2 | %13
 B2 B A2 B |[M:5/8] c-c- c3 |[M:1/8] c |[M:3/4] c2 A B2 c | d4 z2 | A2 c B2 A |[M:5/8] G-G- G3 | %20
[M:1/8] G |[M:3/4] E2- [E-c] [E-A]2 [Ec] | E2- [E-c] [E-A]2 [Ec] | [EG]2 z G2 c | [FB]6 | %25
 A2 B A2 D | A2 B A2 D | [G,G]2 z G- [Gc][Gd] | E3 G- [Gc][Gd] | c2 c G3 | [FA]2 A [CD]3 | %31
 G2 G F2[K:bass] D |[M:5/8] CG,E, C,2 |] %33
V:2
 z6 | .C,3 .[E,G,C]3 | .C,3 .[E,G,C]3 | .G,,3 .[F,G,B,]3 |[M:5/8] B,,2 [E,G,] [E,G,]2 |[M:1/8] z | %6
[M:3/4] C,2 z .[E,G,C]3 | C,2 z .[E,G,C]3 | D,2 z .[D,^F,C]3 |[M:5/8] [G,,G,]2 [D,G,] [D,G,]2 | %10
[M:1/8] z |[M:3/4] G,,2 z .[F,G,B,]3 | C,2 [E,G,] .[E,G,C]3 | G,,2 z .[F,G,B,]3 | %14
[M:5/8] C,2 [E,G,] [E,G,]2 |[M:1/8] z |[M:3/4] D,2 z .[D,^F,C]3 | G,,2 [D,G,] .[D,G,B,]3 | %18
 D,2 z .[D,^F,C]3 |[M:5/8] [G,B,]-[G,B,]- [G,B,]3 |[M:1/8] z |[M:3/4] C,2 G, C2 G, | C,2 G, C2 G, | %23
 C,2 G, C2 G, | D,2 G, B,2 G, | G,,2 G, B,2 G, | G,,2 G, B,2 G, | C,2 .G2[K:treble] EF | %28
 C,2 .G2[K:treble] EF | C,2 G,C G,E, | F,,2 F,A, F,D, | G,,2 G, [B,D]2 G, |[M:5/8] C, z z z2 |] %33
V:3
 x6 | x6 | x6 | x6 |[M:5/8] z2 C C2 |[M:1/8] x |[M:3/4] x6 | x6 | x6 |[M:5/8] z2 B, B,2 | %10
[M:1/8] x |[M:3/4] x6 | z2 C G2 G | x6 |[M:5/8] z2 C C2 |[M:1/8] x |[M:3/4] x6 | z2 B, B2 B | x6 | %19
[M:5/8] x5 |[M:1/8] x |[M:3/4] G2 z2 z2 | G2 z2 z2 | z2 E4 | x6 | F6 | F6 | E3 [DB] z2 | %28
 [G,G]2 z [DB] z2 | E6 | x6 | [CE]4 z2[K:bass] |[M:5/8] x5 |] %33
V:4
 x6 | x6 | x6 | x6 |[M:5/8] x5 |[M:1/8] x |[M:3/4] x6 | x6 | x6 |[M:5/8] x5 |[M:1/8] x | %11
[M:3/4] x6 | x6 | x6 |[M:5/8] x5 |[M:1/8] x |[M:3/4] x6 | x6 | x6 |[M:5/8] x5 |[M:1/8] x | %21
[M:3/4] x6 | x6 | x6 | x6 | x6 | x6 | z2 z .[G,,G,]3[K:treble] | z2 z .[G,,G,]3[K:treble] | x6 | %30
 x6 | x6 |[M:5/8] x5 |] %33

